src/16/panel/network-cellular-secure-signal-low.svg

<svg height="16" width="16" xmlns="http://www.w3.org/2000/svg"><defs><style id="current-color-scheme" type="text/css">.ColorScheme-Text{color:#dfdfdf;}.ColorScheme-Highlight{color:#5294e2;}</style></defs><g fill="#dfdfdf"><path d="M15 1.004l-14 14h8V11h1.014c.02-1.635 1.342-3 2.986-3 .774 0 1.47.31 2 .8V1.005z" opacity=".35"/><path d="M5 11.003l-4 4h4v-4z"/><path d="M13 9c-1.108 0-2 .91-2 2.031V12h-1v4h6v-4h-1v-.969C15 9.911 14.108 9 13 9zm0 1c.554 0 1 .442 1 1v1h-2v-1c0-.558.446-1 1-1z" style="marker:none" color="#000" overflow="visible"/></g></svg>

<svg xmlns="http://www.w3.org/2000/svg" width="16" height="16" version="1.1">
 <defs>
  <style id="current-color-scheme" type="text/css">
   .ColorScheme-Text { color:#dfdfdf; } .ColorScheme-Highlight { color:#4285f4; }
  </style>
 </defs>
 <path style="opacity:0.3;fill:currentColor" class="ColorScheme-Text" d="M 15,1.01 1,15.01 H 9 V 11.01 H 10.01 C 10.03,9.37 11.36,8.01 13,8.01 13.77,8.01 14.47,8.32 15,8.81 Z"/>
 <path style="fill:currentColor" class="ColorScheme-Text" d="M 5,11.01 1,15.01 H 5 Z"/>
 <path style="fill:currentColor" class="ColorScheme-Text" d="M 13,9 C 11.89,9 11,9.91 11,11.03 V 12 H 10 V 16 H 16 V 12 H 15 V 11.03 C 15,9.91 14.11,9 13,9 Z M 13,10 C 13.55,10 14,10.44 14,11 V 12 H 12 V 11 C 12,10.44 12.45,10 13,10 Z"/>
</svg>
